X: 30247
T: Old John's
R: jig
M: 6/8
K: Adorian
cAA cAA|GEE G>AB|cAA cAG|Add ded|
cAA cAA|GEE G>AB|cde ged|1 cAA A2 B:|2 cAA A3||
|:e>fg eaa|ged cAA|e>fg eaa|bag a2 g|
e>fg eaa|ged cAA|cde ged|cAA A3:|

